src/lib/images/icons/appstore.svg

<svg id="apple-logo" viewBox="0 0 281 256" fill="none" xmlns="http://www.w3.org/2000/svg">
<path d="M103.126 162.178L174.666 32.9661C175.646 31.1948 176.635 29.4305 177.519 27.5994C178.321 25.937 179.002 24.2582 179.446 22.4447C180.386 18.6293 180.134 14.6523 178.673 11.0101C177.224 7.38667 174.673 4.36265 171.413 2.39933C168.181 0.442768 164.377 -0.351861 160.631 0.146828C156.876 0.650245 153.448 2.4122 150.746 5.16695C149.466 6.47583 148.41 7.93106 147.431 9.48697C146.354 11.1998 145.382 12.9746 144.399 14.7459L139.875 22.9165L135.35 14.7459C134.37 12.9723 133.398 11.1986 132.321 9.48697C131.341 7.93106 130.285 6.47583 129.002 5.16695C126.304 2.4122 122.876 0.651415 119.121 0.144486C115.375 -0.352934 111.572 0.442487 108.339 2.39933C105.079 4.36265 102.527 7.38667 101.077 11.0101C99.618 14.6511 99.3663 18.6293 100.304 22.4447C100.749 24.2593 101.43 25.9382 102.233 27.5994C103.115 29.4305 104.104 31.1936 105.087 32.9661L119.697 59.358L62.7702 162.178H23.7601C21.798 162.178 19.837 162.17 17.876 162.286C16.0941 162.391 14.3591 162.618 12.6311 163.122C8.99243 164.182 5.81505 166.397 3.51924 169.537C1.2363 172.657 0 176.479 0 180.401C0 184.325 1.23747 188.141 3.51924 191.261C5.81388 194.403 8.99243 196.618 12.6299 197.677C14.3591 198.18 16.0953 198.406 17.876 198.514C19.837 198.631 21.798 198.62 23.7601 198.62H177.096C177.296 198.202 177.787 197.105 178.267 195.462C183.126 178.895 171.06 162.178 154.446 162.178H103.126ZM36.445 204.587L27.1705 222.157C26.2128 223.975 25.2458 225.786 24.3794 227.666C23.595 229.372 22.9277 231.096 22.4934 232.957C21.5743 236.875 21.819 240.958 23.2485 244.699C24.6674 248.416 27.1658 251.524 30.3549 253.536C33.5475 255.55 37.2517 256.365 40.9067 255.849C44.5817 255.334 47.937 253.524 50.5805 250.695C51.8356 249.351 52.8681 247.857 53.8258 246.261C54.8818 244.502 55.8324 242.68 56.7936 240.862L70.2442 215.379C69.1952 213.634 59.1538 198.164 36.445 204.587ZM277.454 169.399C275.196 166.34 271.99 164.114 268.334 163.069C266.606 162.571 264.868 162.348 263.086 162.244C261.121 162.128 259.161 162.137 257.197 162.137H218.319L166.934 70.6205C159.143 78.8215 155.658 88.006 154.322 96.3486C152.384 108.446 154.752 120.857 160.714 131.475L222.46 241.446C223.443 243.195 224.415 244.947 225.493 246.638C226.473 248.172 227.529 249.609 228.814 250.9C231.518 253.62 234.946 255.359 238.705 255.855C242.442 256.351 246.233 255.569 249.496 253.631C252.755 251.696 255.312 248.71 256.766 245.135C258.225 241.539 258.475 237.613 257.536 233.848C257.09 232.058 256.41 230.4 255.605 228.76C254.723 226.954 253.734 225.213 252.75 223.464L238.514 198.103H257.199C259.163 198.103 261.122 198.114 263.087 197.998C264.869 197.892 266.607 197.67 268.335 197.172C271.991 196.127 275.198 193.901 277.455 190.842C279.747 187.738 280.982 183.98 280.977 180.121C280.981 176.262 279.746 172.504 277.454 169.399V169.399Z" fill="#ffffff" class="svg-elem-1"></path>
</svg>

<svg fill="none" viewBox="0 0 281 256" xmlns="http://www.w3.org/2000/svg"><path d="M103.126 162.178l71.54-129.212c.98-1.771 1.969-3.536 2.853-5.367.802-1.662 1.483-3.34 1.927-5.154.94-3.816.688-7.793-.773-11.435-1.449-3.623-4-6.647-7.26-8.61A16.592 16.592 0 0 0 160.631.146c-3.755.503-7.183 2.265-9.885 5.02-1.28 1.309-2.336 2.764-3.315 4.32-1.077 1.713-2.049 3.488-3.032 5.259l-4.524 8.17-4.525-8.17c-.98-1.774-1.952-3.547-3.029-5.259-.98-1.556-2.036-3.011-3.319-4.32-2.698-2.755-6.126-4.516-9.881-5.023A16.601 16.601 0 0 0 108.339 2.4c-3.26 1.964-5.812 4.988-7.262 8.611-1.459 3.641-1.71 7.62-.773 11.435.445 1.814 1.126 3.493 1.929 5.154.882 1.831 1.871 3.595 2.854 5.367l14.61 26.392-56.927 102.82H23.76c-1.962 0-3.923-.008-5.884.108-1.782.105-3.517.332-5.245.836-3.639 1.06-6.816 3.275-9.112 6.415C1.236 172.657 0 176.479 0 180.401c0 3.924 1.237 7.74 3.52 10.86 2.294 3.142 5.472 5.357 9.11 6.416 1.73.503 3.465.729 5.246.837 1.961.117 3.922.106 5.884.106h153.336c.2-.418.691-1.515 1.171-3.158 4.859-16.567-7.207-33.284-23.821-33.284zm-66.681 42.409l-9.274 17.57c-.958 1.818-1.925 3.629-2.792 5.509-.784 1.706-1.451 3.43-1.886 5.291-.919 3.918-.674 8.001.756 11.742 1.418 3.717 3.917 6.825 7.106 8.837 3.192 2.014 6.897 2.829 10.552 2.313 3.675-.515 7.03-2.325 9.674-5.154 1.255-1.344 2.287-2.838 3.245-4.434 1.056-1.759 2.006-3.581 2.968-5.399l13.45-25.483c-1.049-1.745-11.09-17.215-33.799-10.792zm241.009-35.188a17.216 17.216 0 0 0-9.12-6.33c-1.728-.498-3.466-.721-5.248-.825-1.965-.116-3.925-.107-5.889-.107h-38.878l-51.385-91.516c-7.791 8.2-11.276 17.385-12.612 25.728-1.938 12.097.43 24.508 6.392 35.126l61.746 109.971c.983 1.749 1.955 3.501 3.033 5.192.98 1.534 2.036 2.971 3.321 4.262 2.704 2.72 6.132 4.459 9.891 4.955a16.784 16.784 0 0 0 10.791-2.224c3.259-1.935 5.816-4.921 7.27-8.496 1.459-3.596 1.709-7.522.77-11.287-.446-1.79-1.126-3.448-1.931-5.088-.882-1.806-1.871-3.547-2.855-5.296l-14.236-25.361h18.685c1.964 0 3.923.011 5.888-.105 1.782-.106 3.52-.328 5.248-.826a17.212 17.212 0 0 0 9.12-6.33 18.01 18.01 0 0 0 3.522-10.721 18.022 18.022 0 0 0-3.523-10.722z" fill="#fff"/></svg>
